assets/images/item_44211.svg

<svg xmlns="http://www.w3.org/2000/svg" version="1.1" width="156px" height="84.3px" viewBox="0 0 156 84.3"><desc>Cotton doll symbolizing ancestors</desc><defs/><g id="Polygon47649"><path d="m7.9 50.2c0 1.6 0 2.5.2 3.5c0 0-1 0-1 0c-.1-.4-.2-.9-.2-1.4c0 0 0 0 0 0c-.6 1.1-1.5 1.6-2.9 1.6c-1.4 0-2.9-.7-2.9-2.5c0-2.5 2.9-2.8 4.6-2.8c-.03.04 1.2 0 1.2 0c0 0 .03-.46 0-.5c0-1.4-1-2-2.3-2c-1 0-1.8.3-2.5 1c0 0-.7-.8-.7-.8c.8-.7 2.1-1.2 3.2-1.2c2 0 3.3.9 3.3 3.1c0 0 0 2 0 2zm-2.2-.7c-1.8 0-3.6.5-3.6 1.9c0 1 1 1.5 1.9 1.5c2.3 0 2.9-1.5 2.9-2.8c.03-.04 0-.6 0-.6c0 0-1.16 0-1.2 0zm5-1.8c0-.6-.1-1.9-.1-2.3c0 0 1.1 0 1.1 0c0 .6 0 1.3.1 1.4c0 0 0 0 0 0c.5-.9 1.5-1.7 2.9-1.7c2.6 0 3.1 1.8 3.1 3.6c.03.03 0 5 0 5l-1 0c0 0-.05-4.92 0-4.9c0-1.4-.4-2.7-2.1-2.7c-1.6 0-2.9 1.1-2.9 3.4c-.01.02 0 4.2 0 4.2l-1.1 0c0 0 .01-6 0-6zm16.9 4.8c-.8.9-1.9 1.4-3.1 1.4c-2.5 0-4.4-1.8-4.4-4.4c0-2.5 1.9-4.4 4.4-4.4c1.2 0 2.3.6 3.1 1.5c0 0-.8.6-.8.6c-.7-.6-1.4-1.1-2.3-1.1c-2 0-3.3 1.5-3.3 3.4c0 1.9 1.3 3.4 3.3 3.4c.9 0 1.7-.4 2.3-1.1c0 0 .8.7.8.7zm9-.4c-.9 1.3-2.2 1.8-3.6 1.8c-2.6 0-4.2-1.8-4.2-4.4c0-2.5 1.7-4.4 4.1-4.4c2.6 0 3.9 2 3.9 3.9c.02.04 0 .8 0 .8c0 0-6.96-.01-7 0c0 .9.7 3.1 3.2 3.1c1.1 0 2.2-.6 2.8-1.5c0 0 .8.7.8.7zm-.9-3.3c0-1.5-1.2-2.7-2.8-2.7c-2.4 0-3.1 2.3-3.1 2.7c0 0 5.9 0 5.9 0zm3.6 2.8c.5.8 1.5 1.3 2.4 1.3c1 0 1.9-.6 1.9-1.5c0-2.3-4.9-.7-4.9-3.9c0-1.6 1.5-2.4 2.9-2.4c1.3 0 2.3.6 2.9 1.6c0 0-1 .6-1 .6c-.4-.8-1-1.2-1.9-1.2c-.8 0-1.8.5-1.8 1.4c0 2.2 4.9.5 4.9 3.8c0 1.7-1.4 2.6-3 2.6c-1.4 0-2.7-.5-3.3-1.7c0 0 .9-.6.9-.6zm12-5.3l-2.4 0c0 0-.01 5.45 0 5.5c0 .7.4 1.1 1.1 1.1c.5 0 .9-.1 1.3-.3c0 0 .1 1 .1 1c-.4.2-1 .3-1.5.3c-1.5 0-2.1-1-2.1-2.1c.01-.05 0-5.5 0-5.5l-1.8 0l0-.9l1.8 0l0-2.4l1.1 0l0 2.4l2.4 0l0 .9zm5.5-1.2c2.5 0 4.3 1.9 4.3 4.4c0 2.6-1.8 4.4-4.3 4.4c-2.6 0-4.4-1.8-4.4-4.4c0-2.5 1.8-4.4 4.4-4.4zm0 7.8c2 0 3.3-1.5 3.3-3.4c0-1.9-1.3-3.4-3.3-3.4c-2.1 0-3.3 1.5-3.3 3.4c0 1.9 1.2 3.4 3.3 3.4zm6.7-5.2c0-.6-.1-1.9-.1-2.3c0 0 1.1 0 1.1 0c0 .6 0 1.3 0 1.4c.6-1 1.4-1.7 2.7-1.7c.2 0 .4.1.6.1c0 0-.1 1.1-.1 1.1c-.2-.1-.3-.1-.4-.1c-1.9 0-2.7 1.3-2.7 2.9c-.04.04 0 4.6 0 4.6l-1.1 0c0 0-.02-6 0-6zm6.2 3.9c.5.8 1.5 1.3 2.4 1.3c1 0 1.9-.6 1.9-1.5c0-2.3-4.9-.7-4.9-3.9c0-1.6 1.5-2.4 2.8-2.4c1.4 0 2.4.6 3 1.6c0 0-1 .6-1 .6c-.4-.8-1-1.2-2-1.2c-.7 0-1.7.5-1.7 1.4c0 2.2 4.9.5 4.9 3.8c0 1.7-1.4 2.6-3 2.6c-1.4 0-2.7-.5-3.3-1.7c0 0 .9-.6.9-.6z" stroke="none" fill="#000"/></g><g id="Polygon47648"><path d="m1.5 31.6c.4.8 1.4 1.3 2.4 1.3c.9 0 1.9-.6 1.9-1.5c0-2.3-5-.7-5-3.9c0-1.6 1.5-2.4 2.9-2.4c1.3 0 2.4.6 2.9 1.6c0 0-.9.6-.9.6c-.5-.8-1-1.2-2-1.2c-.8 0-1.8.5-1.8 1.4c0 2.2 5 .5 5 3.8c0 1.7-1.5 2.6-3 2.6c-1.5 0-2.7-.5-3.4-1.7c0 0 1-.6 1-.6zm10 4.7c-.4 1-1.1 1.7-2.3 1.7c-.3 0-.7-.1-1-.2c0 0 .1-1 .1-1c.3.1.6.2 1 .2c.7 0 1.1-.7 1.3-1.4c.04.04.8-1.9.8-1.9l-3.4-8.3l1.2 0l2.8 7l2.7-7l1.1 0c0 0-4.28 10.85-4.3 10.9zm6.1-8.6c0-.6-.1-1.9-.1-2.3c0 0 1.1 0 1.1 0c0 .6.1 1.3.1 1.4c0 0 .1 0 .1 0c.4-.9 1.4-1.7 2.8-1.7c1.1 0 2.1.6 2.5 1.8c.5-1.2 1.7-1.8 2.8-1.8c2.6 0 3.2 1.8 3.2 3.6c-.01.03 0 5 0 5l-1.1 0c0 0 .01-4.92 0-4.9c0-1.4-.4-2.7-2.1-2.7c-2 0-2.5 1.7-2.5 2.9c0 0 0 4.7 0 4.7l-1.1 0c0 0 .02-5.02 0-5c0-1.6-.5-2.6-1.7-2.6c-1.6 0-2.9 1.1-2.9 3.4c.02.02 0 4.2 0 4.2l-1.1 0c0 0 .04-6 0-6zm15.2-7.6l1.1 0l0 6.7c0 0 0 .02 0 0c.7-1.1 2.1-1.7 3.3-1.7c2.6 0 4.4 1.9 4.4 4.4c0 2.6-1.8 4.4-4.4 4.4c-1.2 0-2.6-.5-3.3-1.7c0 .02 0 0 0 0l0 1.5l-1.1 0l0-13.6zm4.4 12.8c2.1 0 3.3-1.5 3.3-3.4c0-1.9-1.2-3.4-3.3-3.4c-1.9 0-3.4 1.5-3.4 3.4c0 1.9 1.5 3.4 3.4 3.4zm10.7-7.8c2.5 0 4.4 1.9 4.4 4.4c0 2.6-1.9 4.4-4.4 4.4c-2.6 0-4.4-1.8-4.4-4.4c0-2.5 1.8-4.4 4.4-4.4zm0 7.8c2 0 3.3-1.5 3.3-3.4c0-1.9-1.3-3.4-3.3-3.4c-2 0-3.3 1.5-3.3 3.4c0 1.9 1.3 3.4 3.3 3.4zm6.8-12.8l1.1 0l0 13.6l-1.1 0l0-13.6zm4.1 5.3l1.1 0l0 8.3l-1.1 0l0-8.3zm.5-4.1c.5 0 .8.3.8.8c0 .4-.3.8-.8.8c-.4 0-.8-.4-.8-.8c0-.5.4-.8.8-.8zm2.5 11.7l5-6.7l-4.7 0l0-.9l6.2 0l0 .6l-5 6.7l5.2 0l0 1l-6.7 0l0-.7zm8.7-7.6l1.1 0l0 8.3l-1.1 0l0-8.3zm.5-4.1c.5 0 .8.3.8.8c0 .4-.3.8-.8.8c-.4 0-.8-.4-.8-.8c0-.5.4-.8.8-.8zm3.5 6.4c0-.6-.1-1.9-.1-2.3c0 0 1.1 0 1.1 0c0 .6 0 1.3 0 1.4c0 0 .1 0 .1 0c.4-.9 1.5-1.7 2.8-1.7c2.6 0 3.2 1.8 3.2 3.6c.01.03 0 5 0 5l-1.1 0c0 0 .03-4.92 0-4.9c0-1.4-.3-2.7-2.1-2.7c-1.6 0-2.8 1.1-2.8 3.4c-.04.02 0 4.2 0 4.2l-1.1 0c0 0-.02-6 0-6zm18.2 5.4c0 4.2-2.8 4.9-4.5 4.9c-1.6 0-3.2-.6-4.1-1.7c0 0 .9-.8.9-.8c.7 1 1.9 1.5 3.2 1.5c3.3 0 3.4-2.9 3.4-3.8c-.02.01 0-1.1 0-1.1c0 0-.06-.04-.1 0c-.6.9-1.7 1.6-3.1 1.6c-2.5 0-4.5-1.9-4.5-4.3c0-2.3 2-4.3 4.5-4.3c1.4 0 2.5.7 3.1 1.7c.04-.03.1 0 .1 0l0-1.4l1.1 0c0 0-.04 7.74 0 7.7zm-4.4-7c-1.8 0-3.3 1.5-3.3 3.3c0 1.8 1.5 3.3 3.3 3.3c1.8 0 3.3-1.5 3.3-3.3c0-1.8-1.5-3.3-3.3-3.3z" stroke="none" fill="#000"/></g><g id="Polygon47647"><path d="m12.2 11.7c-1.2 1.6-2.8 2.3-4.7 2.3c-3.9 0-6.6-2.8-6.6-6.7c0-3.9 2.7-6.7 6.6-6.7c1.7 0 3.3.6 4.4 2c0 0-1 .8-1 .8c-.8-1.2-2.1-1.7-3.4-1.7c-3.3 0-5.4 2.4-5.4 5.6c0 3.2 2.1 5.6 5.4 5.6c1.3 0 2.9-.6 3.8-2c0 0 .9.8.9.8zm5.8-6.6c2.6 0 4.4 1.9 4.4 4.4c0 2.6-1.8 4.4-4.4 4.4c-2.5 0-4.3-1.8-4.3-4.4c0-2.5 1.8-4.4 4.3-4.4zm0 7.8c2.1 0 3.3-1.5 3.3-3.4c0-1.9-1.2-3.4-3.3-3.4c-2 0-3.3 1.5-3.3 3.4c0 1.9 1.3 3.4 3.3 3.4zm10.7-6.6l-2.4 0c0 0-.01 5.45 0 5.5c0 .7.4 1.1 1.1 1.1c.5 0 .9-.1 1.3-.3c0 0 .1 1 .1 1c-.4.2-1 .3-1.4.3c-1.6 0-2.2-1-2.2-2.1c.01-.05 0-5.5 0-5.5l-1.8 0l0-.9l1.8 0l0-2.4l1.1 0l0 2.4l2.4 0l0 .9zm6.5 0l-2.4 0c0 0 .05 5.45 0 5.5c0 .7.5 1.1 1.2 1.1c.4 0 .8-.1 1.2-.3c0 0 .1 1 .1 1c-.4.2-1 .3-1.4.3c-1.5 0-2.1-1-2.1-2.1c-.03-.05 0-5.5 0-5.5l-1.8 0l0-.9l1.8 0l0-2.4l1 0l0 2.4l2.4 0l0 .9zm5.5-1.2c2.6 0 4.4 1.9 4.4 4.4c0 2.6-1.8 4.4-4.4 4.4c-2.5 0-4.3-1.8-4.3-4.4c0-2.5 1.8-4.4 4.3-4.4zm0 7.8c2.1 0 3.3-1.5 3.3-3.4c0-1.9-1.2-3.4-3.3-3.4c-2 0-3.3 1.5-3.3 3.4c0 1.9 1.3 3.4 3.3 3.4zm6.7-5.2c0-.6-.1-1.9-.1-2.3c0 0 1.1 0 1.1 0c0 .6.1 1.3.1 1.4c0 0 .1 0 .1 0c.4-.9 1.4-1.7 2.8-1.7c2.6 0 3.2 1.8 3.2 3.6c-.04.03 0 5 0 5l-1.1 0c0 0-.02-4.92 0-4.9c0-1.4-.4-2.7-2.1-2.7c-1.6 0-2.9 1.1-2.9 3.4c.01.02 0 4.2 0 4.2l-1.1 0c0 0 .03-6 0-6zm22 4.5c0 0-.04.02 0 0c-.7 1.2-2.1 1.7-3.4 1.7c-2.5 0-4.3-1.8-4.3-4.4c0-2.5 1.8-4.4 4.3-4.4c1.3 0 2.7.6 3.4 1.7c-.04.02 0 0 0 0l0-6.7l1.1 0l0 13.6l-1.1 0l0-1.5zm-3.4-6.1c-2 0-3.3 1.5-3.3 3.4c0 1.9 1.3 3.4 3.3 3.4c2 0 3.5-1.5 3.5-3.4c0-1.9-1.5-3.4-3.5-3.4zm11.1-1c2.5 0 4.4 1.9 4.4 4.4c0 2.6-1.9 4.4-4.4 4.4c-2.6 0-4.4-1.8-4.4-4.4c0-2.5 1.8-4.4 4.4-4.4zm0 7.8c2 0 3.3-1.5 3.3-3.4c0-1.9-1.3-3.4-3.3-3.4c-2.1 0-3.3 1.5-3.3 3.4c0 1.9 1.2 3.4 3.3 3.4zm6.8-12.8l1.1 0l0 13.6l-1.1 0l0-13.6zm4 0l1.1 0l0 13.6l-1.1 0l0-13.6z" stroke="none" fill="#000"/></g></svg>

<?xml version="1.0" standalone="no"?><!DOCTYPE svg PUBLIC "-//W3C//DTD SVG 1.1//EN" "http://www.w3.org/Graphics/SVG/1.1/DTD/svg11.dtd"><svg xmlns="http://www.w3.org/2000/svg" version="1.1" width="156px" height="84.3px" viewBox="0 0 156 84.3">  <desc>Cotton doll symbolizing ancestors</desc>  <defs/>  <g id="Polygon47522">    <path d="M 7.9 50.2 C 7.9 51.8 7.9 52.7 8.1 53.7 C 8.1 53.7 7.1 53.7 7.1 53.7 C 7 53.3 6.9 52.8 6.9 52.3 C 6.9 52.3 6.9 52.3 6.9 52.3 C 6.3 53.4 5.4 53.9 4 53.9 C 2.6 53.9 1.1 53.2 1.1 51.4 C 1.1 48.9 4 48.6 5.7 48.6 C 5.67 48.64 6.9 48.6 6.9 48.6 C 6.9 48.6 6.93 48.14 6.9 48.1 C 6.9 46.7 5.9 46.1 4.6 46.1 C 3.6 46.1 2.8 46.4 2.1 47.1 C 2.1 47.1 1.4 46.3 1.4 46.3 C 2.2 45.6 3.5 45.1 4.6 45.1 C 6.6 45.1 7.9 46 7.9 48.2 C 7.9 48.2 7.9 50.2 7.9 50.2 Z M 5.7 49.5 C 3.9 49.5 2.1 50 2.1 51.4 C 2.1 52.4 3.1 52.9 4 52.9 C 6.3 52.9 6.9 51.4 6.9 50.1 C 6.93 50.06 6.9 49.5 6.9 49.5 C 6.9 49.5 5.74 49.5 5.7 49.5 Z M 10.7 47.7 C 10.7 47.1 10.6 45.8 10.6 45.4 C 10.6 45.4 11.7 45.4 11.7 45.4 C 11.7 46 11.7 46.7 11.8 46.8 C 11.8 46.8 11.8 46.8 11.8 46.8 C 12.3 45.9 13.3 45.1 14.7 45.1 C 17.3 45.1 17.8 46.9 17.8 48.7 C 17.83 48.73 17.8 53.7 17.8 53.7 L 16.8 53.7 C 16.8 53.7 16.75 48.78 16.8 48.8 C 16.8 47.4 16.4 46.1 14.7 46.1 C 13.1 46.1 11.8 47.2 11.8 49.5 C 11.79 49.52 11.8 53.7 11.8 53.7 L 10.7 53.7 C 10.7 53.7 10.71 47.7 10.7 47.7 Z M 27.6 52.5 C 26.8 53.4 25.7 53.9 24.5 53.9 C 22 53.9 20.1 52.1 20.1 49.5 C 20.1 47 22 45.1 24.5 45.1 C 25.7 45.1 26.8 45.7 27.6 46.6 C 27.6 46.6 26.8 47.2 26.8 47.2 C 26.1 46.6 25.4 46.1 24.5 46.1 C 22.5 46.1 21.2 47.6 21.2 49.5 C 21.2 51.4 22.5 52.9 24.5 52.9 C 25.4 52.9 26.2 52.5 26.8 51.8 C 26.8 51.8 27.6 52.5 27.6 52.5 Z M 36.6 52.1 C 35.7 53.4 34.4 53.9 33 53.9 C 30.4 53.9 28.8 52.1 28.8 49.5 C 28.8 47 30.5 45.1 32.9 45.1 C 35.5 45.1 36.8 47.1 36.8 49 C 36.82 49.04 36.8 49.8 36.8 49.8 C 36.8 49.8 29.84 49.79 29.8 49.8 C 29.8 50.7 30.5 52.9 33 52.9 C 34.1 52.9 35.2 52.3 35.8 51.4 C 35.8 51.4 36.6 52.1 36.6 52.1 Z M 35.7 48.8 C 35.7 47.3 34.5 46.1 32.9 46.1 C 30.5 46.1 29.8 48.4 29.8 48.8 C 29.8 48.8 35.7 48.8 35.7 48.8 Z M 39.3 51.6 C 39.8 52.4 40.8 52.9 41.7 52.9 C 42.7 52.9 43.6 52.3 43.6 51.4 C 43.6 49.1 38.7 50.7 38.7 47.5 C 38.7 45.9 40.2 45.1 41.6 45.1 C 42.9 45.1 43.9 45.7 44.5 46.7 C 44.5 46.7 43.5 47.3 43.5 47.3 C 43.1 46.5 42.5 46.1 41.6 46.1 C 40.8 46.1 39.8 46.6 39.8 47.5 C 39.8 49.7 44.7 48 44.7 51.3 C 44.7 53 43.3 53.9 41.7 53.9 C 40.3 53.9 39 53.4 38.4 52.2 C 38.4 52.2 39.3 51.6 39.3 51.6 Z M 51.3 46.3 L 48.9 46.3 C 48.9 46.3 48.89 51.75 48.9 51.8 C 48.9 52.5 49.3 52.9 50 52.9 C 50.5 52.9 50.9 52.8 51.3 52.6 C 51.3 52.6 51.4 53.6 51.4 53.6 C 51 53.8 50.4 53.9 49.9 53.9 C 48.4 53.9 47.8 52.9 47.8 51.8 C 47.81 51.75 47.8 46.3 47.8 46.3 L 46 46.3 L 46 45.4 L 47.8 45.4 L 47.8 43 L 48.9 43 L 48.9 45.4 L 51.3 45.4 L 51.3 46.3 Z M 56.8 45.1 C 59.3 45.1 61.1 47 61.1 49.5 C 61.1 52.1 59.3 53.9 56.8 53.9 C 54.2 53.9 52.4 52.1 52.4 49.5 C 52.4 47 54.2 45.1 56.8 45.1 Z M 56.8 52.9 C 58.8 52.9 60.1 51.4 60.1 49.5 C 60.1 47.6 58.8 46.1 56.8 46.1 C 54.7 46.1 53.5 47.6 53.5 49.5 C 53.5 51.4 54.7 52.9 56.8 52.9 Z M 63.5 47.7 C 63.5 47.1 63.4 45.8 63.4 45.4 C 63.4 45.4 64.5 45.4 64.5 45.4 C 64.5 46 64.5 46.7 64.5 46.8 C 65.1 45.8 65.9 45.1 67.2 45.1 C 67.4 45.1 67.6 45.2 67.8 45.2 C 67.8 45.2 67.7 46.3 67.7 46.3 C 67.5 46.2 67.4 46.2 67.3 46.2 C 65.4 46.2 64.6 47.5 64.6 49.1 C 64.56 49.14 64.6 53.7 64.6 53.7 L 63.5 53.7 C 63.5 53.7 63.48 47.7 63.5 47.7 Z M 69.7 51.6 C 70.2 52.4 71.2 52.9 72.1 52.9 C 73.1 52.9 74 52.3 74 51.4 C 74 49.1 69.1 50.7 69.1 47.5 C 69.1 45.9 70.6 45.1 71.9 45.1 C 73.3 45.1 74.3 45.7 74.9 46.7 C 74.9 46.7 73.9 47.3 73.9 47.3 C 73.5 46.5 72.9 46.1 71.9 46.1 C 71.2 46.1 70.2 46.6 70.2 47.5 C 70.2 49.7 75.1 48 75.1 51.3 C 75.1 53 73.7 53.9 72.1 53.9 C 70.7 53.9 69.4 53.4 68.8 52.2 C 68.8 52.2 69.7 51.6 69.7 51.6 Z " stroke="none" fill="#000"/>  </g>  <g id="Polygon47521">    <path d="M 1.5 31.6 C 1.9 32.4 2.9 32.9 3.9 32.9 C 4.8 32.9 5.8 32.3 5.8 31.4 C 5.8 29.1 0.8 30.7 0.8 27.5 C 0.8 25.9 2.3 25.1 3.7 25.1 C 5 25.1 6.1 25.7 6.6 26.7 C 6.6 26.7 5.7 27.3 5.7 27.3 C 5.2 26.5 4.7 26.1 3.7 26.1 C 2.9 26.1 1.9 26.6 1.9 27.5 C 1.9 29.7 6.9 28 6.9 31.3 C 6.9 33 5.4 33.9 3.9 33.9 C 2.4 33.9 1.2 33.4 0.5 32.2 C 0.5 32.2 1.5 31.6 1.5 31.6 Z M 11.5 36.3 C 11.1 37.3 10.4 38 9.2 38 C 8.9 38 8.5 37.9 8.2 37.8 C 8.2 37.8 8.3 36.8 8.3 36.8 C 8.6 36.9 8.9 37 9.3 37 C 10 37 10.4 36.3 10.6 35.6 C 10.64 35.64 11.4 33.7 11.4 33.7 L 8 25.4 L 9.2 25.4 L 12 32.4 L 14.7 25.4 L 15.8 25.4 C 15.8 25.4 11.52 36.25 11.5 36.3 Z M 17.6 27.7 C 17.6 27.1 17.5 25.8 17.5 25.4 C 17.5 25.4 18.6 25.4 18.6 25.4 C 18.6 26 18.7 26.7 18.7 26.8 C 18.7 26.8 18.8 26.8 18.8 26.8 C 19.2 25.9 20.2 25.1 21.6 25.1 C 22.7 25.1 23.7 25.7 24.1 26.9 C 24.6 25.7 25.8 25.1 26.9 25.1 C 29.5 25.1 30.1 26.9 30.1 28.7 C 30.09 28.73 30.1 33.7 30.1 33.7 L 29 33.7 C 29 33.7 29.01 28.78 29 28.8 C 29 27.4 28.6 26.1 26.9 26.1 C 24.9 26.1 24.4 27.8 24.4 29 C 24.4 29 24.4 33.7 24.4 33.7 L 23.3 33.7 C 23.3 33.7 23.32 28.68 23.3 28.7 C 23.3 27.1 22.8 26.1 21.6 26.1 C 20 26.1 18.7 27.2 18.7 29.5 C 18.72 29.52 18.7 33.7 18.7 33.7 L 17.6 33.7 C 17.6 33.7 17.64 27.7 17.6 27.7 Z M 32.8 20.1 L 33.9 20.1 L 33.9 26.8 C 33.9 26.8 33.9 26.82 33.9 26.8 C 34.6 25.7 36 25.1 37.2 25.1 C 39.8 25.1 41.6 27 41.6 29.5 C 41.6 32.1 39.8 33.9 37.2 33.9 C 36 33.9 34.6 33.4 33.9 32.2 C 33.9 32.22 33.9 32.2 33.9 32.2 L 33.9 33.7 L 32.8 33.7 L 32.8 20.1 Z M 37.2 32.9 C 39.3 32.9 40.5 31.4 40.5 29.5 C 40.5 27.6 39.3 26.1 37.2 26.1 C 35.3 26.1 33.8 27.6 33.8 29.5 C 33.8 31.4 35.3 32.9 37.2 32.9 Z M 47.9 25.1 C 50.4 25.1 52.3 27 52.3 29.5 C 52.3 32.1 50.4 33.9 47.9 33.9 C 45.3 33.9 43.5 32.1 43.5 29.5 C 43.5 27 45.3 25.1 47.9 25.1 Z M 47.9 32.9 C 49.9 32.9 51.2 31.4 51.2 29.5 C 51.2 27.6 49.9 26.1 47.9 26.1 C 45.9 26.1 44.6 27.6 44.6 29.5 C 44.6 31.4 45.9 32.9 47.9 32.9 Z M 54.7 20.1 L 55.8 20.1 L 55.8 33.7 L 54.7 33.7 L 54.7 20.1 Z M 58.8 25.4 L 59.9 25.4 L 59.9 33.7 L 58.8 33.7 L 58.8 25.4 Z M 59.3 21.3 C 59.8 21.3 60.1 21.6 60.1 22.1 C 60.1 22.5 59.8 22.9 59.3 22.9 C 58.9 22.9 58.5 22.5 58.5 22.1 C 58.5 21.6 58.9 21.3 59.3 21.3 Z M 61.8 33 L 66.8 26.3 L 62.1 26.3 L 62.1 25.4 L 68.3 25.4 L 68.3 26 L 63.3 32.7 L 68.5 32.7 L 68.5 33.7 L 61.8 33.7 L 61.8 33 Z M 70.5 25.4 L 71.6 25.4 L 71.6 33.7 L 70.5 33.7 L 70.5 25.4 Z M 71 21.3 C 71.5 21.3 71.8 21.6 71.8 22.1 C 71.8 22.5 71.5 22.9 71 22.9 C 70.6 22.9 70.2 22.5 70.2 22.1 C 70.2 21.6 70.6 21.3 71 21.3 Z M 74.5 27.7 C 74.5 27.1 74.4 25.8 74.4 25.4 C 74.4 25.4 75.5 25.4 75.5 25.4 C 75.5 26 75.5 26.7 75.5 26.8 C 75.5 26.8 75.6 26.8 75.6 26.8 C 76 25.9 77.1 25.1 78.4 25.1 C 81 25.1 81.6 26.9 81.6 28.7 C 81.61 28.73 81.6 33.7 81.6 33.7 L 80.5 33.7 C 80.5 33.7 80.53 28.78 80.5 28.8 C 80.5 27.4 80.2 26.1 78.4 26.1 C 76.8 26.1 75.6 27.2 75.6 29.5 C 75.56 29.52 75.6 33.7 75.6 33.7 L 74.5 33.7 C 74.5 33.7 74.48 27.7 74.5 27.7 Z M 92.7 33.1 C 92.7 37.3 89.9 38 88.2 38 C 86.6 38 85 37.4 84.1 36.3 C 84.1 36.3 85 35.5 85 35.5 C 85.7 36.5 86.9 37 88.2 37 C 91.5 37 91.6 34.1 91.6 33.2 C 91.58 33.21 91.6 32.1 91.6 32.1 C 91.6 32.1 91.54 32.06 91.5 32.1 C 90.9 33 89.8 33.7 88.4 33.7 C 85.9 33.7 83.9 31.8 83.9 29.4 C 83.9 27.1 85.9 25.1 88.4 25.1 C 89.8 25.1 90.9 25.8 91.5 26.8 C 91.54 26.77 91.6 26.8 91.6 26.8 L 91.6 25.4 L 92.7 25.4 C 92.7 25.4 92.66 33.14 92.7 33.1 Z M 88.3 26.1 C 86.5 26.1 85 27.6 85 29.4 C 85 31.2 86.5 32.7 88.3 32.7 C 90.1 32.7 91.6 31.2 91.6 29.4 C 91.6 27.6 90.1 26.1 88.3 26.1 Z " stroke="none" fill="#000"/>  </g>  <g id="Polygon47520">    <path d="M 12.2 11.7 C 11 13.3 9.4 14 7.5 14 C 3.6 14 0.9 11.2 0.9 7.3 C 0.9 3.4 3.6 0.6 7.5 0.6 C 9.2 0.6 10.8 1.2 11.9 2.6 C 11.9 2.6 10.9 3.4 10.9 3.4 C 10.1 2.2 8.8 1.7 7.5 1.7 C 4.2 1.7 2.1 4.1 2.1 7.3 C 2.1 10.5 4.2 12.9 7.5 12.9 C 8.8 12.9 10.4 12.3 11.3 10.9 C 11.3 10.9 12.2 11.7 12.2 11.7 Z M 18 5.1 C 20.6 5.1 22.4 7 22.4 9.5 C 22.4 12.1 20.6 13.9 18 13.9 C 15.5 13.9 13.7 12.1 13.7 9.5 C 13.7 7 15.5 5.1 18 5.1 Z M 18 12.9 C 20.1 12.9 21.3 11.4 21.3 9.5 C 21.3 7.6 20.1 6.1 18 6.1 C 16 6.1 14.7 7.6 14.7 9.5 C 14.7 11.4 16 12.9 18 12.9 Z M 28.7 6.3 L 26.3 6.3 C 26.3 6.3 26.29 11.75 26.3 11.8 C 26.3 12.5 26.7 12.9 27.4 12.9 C 27.9 12.9 28.3 12.8 28.7 12.6 C 28.7 12.6 28.8 13.6 28.8 13.6 C 28.4 13.8 27.8 13.9 27.4 13.9 C 25.8 13.9 25.2 12.9 25.2 11.8 C 25.21 11.75 25.2 6.3 25.2 6.3 L 23.4 6.3 L 23.4 5.4 L 25.2 5.4 L 25.2 3 L 26.3 3 L 26.3 5.4 L 28.7 5.4 L 28.7 6.3 Z M 35.2 6.3 L 32.8 6.3 C 32.8 6.3 32.85 11.75 32.8 11.8 C 32.8 12.5 33.3 12.9 34 12.9 C 34.4 12.9 34.8 12.8 35.2 12.6 C 35.2 12.6 35.3 13.6 35.3 13.6 C 34.9 13.8 34.3 13.9 33.9 13.9 C 32.4 13.9 31.8 12.9 31.8 11.8 C 31.77 11.75 31.8 6.3 31.8 6.3 L 30 6.3 L 30 5.4 L 31.8 5.4 L 31.8 3 L 32.8 3 L 32.8 5.4 L 35.2 5.4 L 35.2 6.3 Z M 40.7 5.1 C 43.3 5.1 45.1 7 45.1 9.5 C 45.1 12.1 43.3 13.9 40.7 13.9 C 38.2 13.9 36.4 12.1 36.4 9.5 C 36.4 7 38.2 5.1 40.7 5.1 Z M 40.7 12.9 C 42.8 12.9 44 11.4 44 9.5 C 44 7.6 42.8 6.1 40.7 6.1 C 38.7 6.1 37.4 7.6 37.4 9.5 C 37.4 11.4 38.7 12.9 40.7 12.9 Z M 47.4 7.7 C 47.4 7.1 47.3 5.8 47.3 5.4 C 47.3 5.4 48.4 5.4 48.4 5.4 C 48.4 6 48.5 6.7 48.5 6.8 C 48.5 6.8 48.6 6.8 48.6 6.8 C 49 5.9 50 5.1 51.4 5.1 C 54 5.1 54.6 6.9 54.6 8.7 C 54.56 8.73 54.6 13.7 54.6 13.7 L 53.5 13.7 C 53.5 13.7 53.48 8.78 53.5 8.8 C 53.5 7.4 53.1 6.1 51.4 6.1 C 49.8 6.1 48.5 7.2 48.5 9.5 C 48.51 9.52 48.5 13.7 48.5 13.7 L 47.4 13.7 C 47.4 13.7 47.43 7.7 47.4 7.7 Z M 69.4 12.2 C 69.4 12.2 69.36 12.22 69.4 12.2 C 68.7 13.4 67.3 13.9 66 13.9 C 63.5 13.9 61.7 12.1 61.7 9.5 C 61.7 7 63.5 5.1 66 5.1 C 67.3 5.1 68.7 5.7 69.4 6.8 C 69.36 6.82 69.4 6.8 69.4 6.8 L 69.4 0.1 L 70.5 0.1 L 70.5 13.7 L 69.4 13.7 L 69.4 12.2 Z M 66 6.1 C 64 6.1 62.7 7.6 62.7 9.5 C 62.7 11.4 64 12.9 66 12.9 C 68 12.9 69.5 11.4 69.5 9.5 C 69.5 7.6 68 6.1 66 6.1 Z M 77.1 5.1 C 79.6 5.1 81.5 7 81.5 9.5 C 81.5 12.1 79.6 13.9 77.1 13.9 C 74.5 13.9 72.7 12.1 72.7 9.5 C 72.7 7 74.5 5.1 77.1 5.1 Z M 77.1 12.9 C 79.1 12.9 80.4 11.4 80.4 9.5 C 80.4 7.6 79.1 6.1 77.1 6.1 C 75 6.1 73.8 7.6 73.8 9.5 C 73.8 11.4 75 12.9 77.1 12.9 Z M 83.9 0.1 L 85 0.1 L 85 13.7 L 83.9 13.7 L 83.9 0.1 Z M 87.9 0.1 L 89 0.1 L 89 13.7 L 87.9 13.7 L 87.9 0.1 Z " stroke="none" fill="#000"/>  </g></svg>
